img/Frame 118.svg

<svg width="170" height="50" viewBox="0 0 170 50" fill="none" xmlns="http://www.w3.org/2000/svg">
<g clip-path="url(#clip0_514_967)">
<path d="M7.39308 13.1525H9.66543V-0.0244141H6.35481C3.02638 -0.0244141 1.28208 1.69822 1.28208 4.2403C1.28208 6.26799 2.23729 7.46426 3.95193 8.69642L0.979492 13.1525H3.44169L6.75232 8.16408L5.60725 7.3865C4.21299 6.44145 3.53662 5.69976 3.53662 4.10871C3.53662 2.70309 4.51557 1.75803 6.37854 1.75803H7.39308V13.1525ZM51.2678 13.338C52.306 13.338 53.0358 13.1525 53.5816 12.7518V10.9155C53.018 11.3103 52.3416 11.5555 51.4042 11.5555C49.8023 11.5555 49.1437 10.3054 49.1437 8.33754C49.1437 6.26799 49.9566 5.20928 51.422 5.20928C52.2882 5.20928 53.1307 5.50835 53.5816 5.79546V3.88142C53.1129 3.61226 52.2882 3.42684 51.1788 3.42684C48.319 3.42684 46.8299 5.49041 46.8299 8.39137C46.8299 11.5794 48.2775 13.338 51.2678 13.338ZM37.2777 12.5066V10.6643C36.5835 11.1428 35.4147 11.5555 34.3231 11.5555C32.6855 11.5555 32.0685 10.7839 31.9736 9.1869H37.3726V7.9966C37.3726 4.67694 35.925 3.42684 33.6823 3.42684C30.959 3.42684 29.6597 5.5263 29.6597 8.40932C29.6597 11.729 31.2794 13.338 34.1391 13.338C35.5631 13.338 36.6191 12.9611 37.2777 12.5066ZM44.427 13.1525H46.9604L43.3709 8.08632L46.5332 3.61226H44.2727L41.1164 8.08632V3.61226H38.8737V13.1525H41.1164V8.54091L44.427 13.1525ZM29.1139 11.3701H28.1171V3.61226H21.5908V4.43171C21.5908 6.75846 21.4425 9.77307 20.6534 11.3701H19.9533V15.3298H22.0239V13.1525H27.0432V15.3298H29.1139V11.3701ZM16.7791 3.61226V7.3865H13.7889V3.61226H11.5462V13.1525H13.7889V9.16895H16.7791V13.1525H19.0159V3.61226H16.7791ZM33.6467 5.20928C34.7562 5.20928 35.0943 6.1364 35.0943 7.33267V7.51809H31.9736C32.0329 6.00481 32.5728 5.20928 33.6467 5.20928ZM25.8804 11.3701H22.7181C23.341 9.92859 23.5131 7.33267 23.5131 5.68181V5.39471H25.8804V11.3701ZM65.2637 13.1525H67.9158L63.2702 6.2321L67.4827 -0.0244141H65.1688L61.1225 6.04069V-0.0244141H58.8501V13.1525H61.1225V6.96781L65.2637 13.1525ZM75.5516 6.64481C75.5516 4.336 74.3828 3.46272 72.0155 3.46272C70.5323 3.46272 69.3634 3.93525 68.6871 4.336V6.21415C69.2863 5.75359 70.6035 5.26312 71.7545 5.26312C72.8224 5.26312 73.3148 5.63994 73.3148 6.66874V7.1951H72.9529C69.5296 7.1951 68.0107 8.33754 68.0107 10.2695C68.0107 12.2015 69.1736 13.2841 70.906 13.2841C72.2232 13.2841 72.7868 12.8475 73.2199 12.3929H73.3148C73.3326 12.6381 73.4098 12.9611 73.481 13.1525H75.6643C75.5872 12.375 75.5516 11.5974 75.5516 10.8198V6.64481ZM73.3148 10.8736C73.0301 11.2923 72.502 11.6333 71.7129 11.6333C70.7755 11.6333 70.3009 11.1009 70.3009 10.2875C70.3009 9.20484 71.0722 8.81007 72.9945 8.81007H73.3148V10.8736ZM79.4258 3.61226H77.3552V15.898H79.592V12.034C80.1615 12.8834 80.9862 13.338 81.9474 13.338C84.1248 13.338 85.6318 11.5794 85.6318 8.37343C85.6318 5.18536 84.1663 3.42684 82.0601 3.42684C81.004 3.42684 80.1378 3.91731 79.5386 4.84442L79.4258 3.61226ZM81.3838 11.5555C80.1972 11.5555 79.592 10.5925 79.592 8.39137C79.592 6.17228 80.2327 5.20928 81.4965 5.20928C82.7187 5.20928 83.3179 6.17228 83.3179 8.37343C83.3179 10.5925 82.6771 11.5555 81.3838 11.5555ZM93.5108 5.39471V3.61226H86.0056V5.39471H88.6398V13.1525H90.8766V5.39471H93.5108ZM94.828 3.61226V13.1525H98.2335C100.435 13.1525 101.995 12.0161 101.995 9.77307C101.995 7.64968 100.601 6.53117 98.2691 6.53117H97.0647V3.61226H94.828ZM102.82 3.61226V13.1525H105.062V3.61226H102.82ZM98.103 11.3701H97.0647V8.31361H98.1564C99.1175 8.31361 99.6812 8.75025 99.6812 9.85083C99.6812 10.9514 99.0582 11.3701 98.103 11.3701Z" fill="#232323"/>
</g>
<path d="M9 28.5L11.0206 34.7188H17.5595L12.2694 38.5623L14.2901 44.7812L9 40.9377L3.70993 44.7812L5.73056 38.5623L0.440492 34.7188H6.97937L9 28.5Z" fill="#EA9537"/>
<path d="M31 28.5L33.0206 34.7188H39.5595L34.2694 38.5623L36.2901 44.7812L31 40.9377L25.7099 44.7812L27.7306 38.5623L22.4405 34.7188H28.9794L31 28.5Z" fill="#EA9537"/>
<path d="M53 28.5L55.0206 34.7188H61.5595L56.2694 38.5623L58.2901 44.7812L53 40.9377L47.7099 44.7812L49.7306 38.5623L44.4405 34.7188H50.9794L53 28.5Z" fill="#EA9537"/>
<path d="M75 28.5L77.0206 34.7188H83.5595L78.2694 38.5623L80.2901 44.7812L75 40.9377L69.7099 44.7812L71.7306 38.5623L66.4405 34.7188H72.9794L75 28.5Z" fill="#EA9537"/>
<mask id="mask0_514_967" style="mask-type:alpha" maskUnits="userSpaceOnUse" x="88" y="26" width="9" height="20">
<rect x="88" y="26.5" width="9" height="19" fill="#D9D9D9"/>
</mask>
<g mask="url(#mask0_514_967)">
<path d="M97 28L99.0206 34.2188H105.56L100.269 38.0623L102.29 44.2812L97 40.4377L91.7099 44.2812L93.7306 38.0623L88.4405 34.2188H94.9794L97 28Z" fill="#EA9537"/>
</g>
<path opacity="0.5" d="M97 28L99.0206 34.2188H105.56L100.269 38.0623L102.29 44.2812L97 40.4377L91.7099 44.2812L93.7306 38.0623L88.4405 34.2188H94.9794L97 28Z" fill="#EA9537"/>
<path d="M121.192 44V41.768H115.8V40.648L119.656 32.48H120.976L117.12 40.648H121.192V37.288H122.376V40.648H123.632V41.768H122.376V44H121.192ZM125.469 44V42.632H126.837V44H125.469ZM132.404 44.232C131.833 44.232 131.308 44.1307 130.828 43.928C130.348 43.7253 129.934 43.4373 129.588 43.064C129.241 42.6853 128.988 42.2347 128.828 41.712L129.948 41.376C130.14 41.9467 130.454 42.3787 130.892 42.672C131.334 42.9653 131.833 43.1067 132.388 43.096C132.9 43.0853 133.34 42.9707 133.708 42.752C134.081 42.5333 134.366 42.2293 134.564 41.84C134.761 41.4507 134.86 41 134.86 40.488C134.86 39.704 134.63 39.0747 134.172 38.6C133.718 38.12 133.118 37.88 132.372 37.88C132.164 37.88 131.945 37.9093 131.716 37.968C131.486 38.0213 131.273 38.0987 131.076 38.2L130.484 37.264L134.964 33.128L135.156 33.608H129.284V32.48H135.94V33.624L132.036 37.352L132.02 36.888C132.82 36.7867 133.524 36.8773 134.132 37.16C134.74 37.4427 135.214 37.8747 135.556 38.456C135.902 39.032 136.076 39.7093 136.076 40.488C136.076 41.224 135.916 41.8747 135.596 42.44C135.281 43 134.846 43.44 134.292 43.76C133.737 44.0747 133.108 44.232 132.404 44.232ZM148.218 35.36V44H147.074V37.272L142.338 44H141.346V35.36H142.49V42.032L147.234 35.36H148.218ZM153.576 44.24C152.706 44.24 151.946 44.0507 151.296 43.672C150.65 43.288 150.141 42.7573 149.768 42.08L150.712 41.48C151.026 42.0133 151.418 42.4187 151.888 42.696C152.357 42.9733 152.896 43.112 153.504 43.112C154.138 43.112 154.648 42.9653 155.032 42.672C155.416 42.3787 155.608 41.976 155.608 41.464C155.608 41.112 155.525 40.832 155.36 40.624C155.2 40.416 154.954 40.2667 154.624 40.176C154.298 40.0853 153.89 40.04 153.4 40.04H152.376V39.032H153.384C153.981 39.032 154.461 38.9253 154.824 38.712C155.192 38.4933 155.376 38.152 155.376 37.688C155.376 37.1973 155.192 36.8347 154.824 36.6C154.461 36.36 154.026 36.24 153.52 36.24C153.008 36.24 152.522 36.3467 152.064 36.56C151.61 36.768 151.229 37.0373 150.92 37.368L150.168 36.576C150.6 36.1013 151.104 35.7413 151.68 35.496C152.261 35.2453 152.904 35.12 153.608 35.12C154.162 35.12 154.664 35.2187 155.112 35.416C155.565 35.608 155.922 35.8907 156.184 36.264C156.45 36.6373 156.584 37.0853 156.584 37.608C156.584 38.0987 156.464 38.5227 156.224 38.88C155.989 39.2373 155.656 39.5333 155.224 39.768L155.16 39.328C155.533 39.3973 155.842 39.5467 156.088 39.776C156.333 40.0053 156.514 40.28 156.632 40.6C156.749 40.92 156.808 41.2453 156.808 41.576C156.808 42.1253 156.664 42.6 156.376 43C156.093 43.3947 155.706 43.7013 155.216 43.92C154.73 44.1333 154.184 44.24 153.576 44.24ZM165.176 44.24C164.579 44.24 164.027 44.1173 163.52 43.872C163.014 43.6267 162.582 43.288 162.224 42.856C161.867 42.424 161.611 41.928 161.456 41.368L162.584 41.064C162.686 41.48 162.87 41.84 163.136 42.144C163.403 42.4427 163.715 42.6747 164.072 42.84C164.435 43.0053 164.814 43.088 165.208 43.088C165.72 43.088 166.179 42.9653 166.584 42.72C166.995 42.4693 167.32 42.1387 167.56 41.728C167.8 41.3173 167.92 40.8667 167.92 40.376C167.92 39.8693 167.795 39.4133 167.544 39.008C167.294 38.5973 166.963 38.272 166.552 38.032C166.142 37.792 165.694 37.672 165.208 37.672C164.664 37.672 164.195 37.792 163.8 38.032C163.406 38.2667 163.091 38.5627 162.856 38.92L161.784 38.472L162.136 32.48H168.288V33.608H162.656L163.24 33.056L162.928 38.168L162.632 37.776C162.963 37.3973 163.363 37.1013 163.832 36.888C164.302 36.6747 164.795 36.568 165.312 36.568C166.022 36.568 166.662 36.7387 167.232 37.08C167.803 37.416 168.256 37.872 168.592 38.448C168.928 39.024 169.096 39.6667 169.096 40.376C169.096 41.08 168.918 41.7253 168.56 42.312C168.203 42.8933 167.728 43.36 167.136 43.712C166.544 44.064 165.891 44.24 165.176 44.24Z" fill="#232323"/>
<defs>
<clipPath id="clip0_514_967">
<rect width="106" height="16" fill="white"/>
</clipPath>
</defs>
</svg>

<svg width="170" height="50" fill="none" xmlns="http://www.w3.org/2000/svg"><g clip-path="url(#a)"><path d="M7.393 13.152h2.272V-.024h-3.31c-3.329 0-5.073 1.722-5.073 4.264 0 2.028.955 3.224 2.67 4.456L.979 13.153h2.463l3.31-4.989-1.145-.777C4.213 6.44 3.537 5.7 3.537 4.108c0-1.406.979-2.351 2.842-2.351h1.014v11.395Zm43.875.186c1.038 0 1.768-.185 2.314-.586v-1.837c-.564.395-1.24.64-2.178.64-1.602 0-2.26-1.25-2.26-3.217 0-2.07.813-3.129 2.278-3.129.866 0 1.709.3 2.16.586V3.881c-.47-.269-1.294-.454-2.403-.454-2.86 0-4.35 2.063-4.35 4.964 0 3.188 1.449 4.947 4.439 4.947Zm-13.99-.831v-1.843c-.694.479-1.863.892-2.955.892-1.638 0-2.255-.772-2.35-2.37h5.4v-1.19c0-3.32-1.448-4.57-3.69-4.57-2.724 0-4.023 2.1-4.023 4.983 0 3.32 1.62 4.929 4.48 4.929 1.423 0 2.48-.377 3.138-.831Zm7.149.646h2.533l-3.59-5.067 3.163-4.474h-2.26l-3.157 4.474V3.612h-2.242v9.54h2.242V8.541l3.311 4.611ZM29.114 11.37h-.997V3.612h-6.526v.82c0 2.326-.149 5.341-.938 6.938h-.7v3.96h2.07v-2.178h5.02v2.178h2.07v-3.96ZM16.779 3.612v3.774h-2.99V3.612h-2.243v9.54h2.243V9.17h2.99v3.983h2.237v-9.54h-2.237ZM33.647 5.21c1.11 0 1.447.927 1.447 2.124v.185h-3.12c.059-1.513.599-2.309 1.673-2.309ZM25.88 11.37h-3.162c.623-1.441.795-4.037.795-5.688v-.287h2.367v5.975Zm39.384 1.783h2.652l-4.646-6.92 4.213-6.257h-2.314L61.123 6.04V-.024H58.85v13.177h2.273V6.968l4.14 6.184Zm10.288-6.508c0-2.309-1.17-3.182-3.537-3.182-1.483 0-2.652.472-3.328.873v1.878c.6-.46 1.916-.95 3.067-.95 1.068 0 1.56.376 1.56 1.405v.526h-.361c-3.423 0-4.942 1.143-4.942 3.075 0 1.931 1.163 3.014 2.895 3.014 1.317 0 1.88-.437 2.314-.891h.095c.018.245.095.568.166.76h2.183a23.621 23.621 0 0 1-.112-2.333V6.645Zm-2.237 4.229c-.285.418-.813.76-1.602.76-.938 0-1.412-.533-1.412-1.347 0-1.082.771-1.477 2.694-1.477h.32v2.064Zm6.11-7.262h-2.07v12.286h2.237v-3.864c.57.85 1.394 1.304 2.355 1.304 2.178 0 3.685-1.759 3.685-4.965 0-3.188-1.466-4.946-3.572-4.946-1.056 0-1.922.49-2.521 1.417l-.113-1.232Zm1.959 7.944c-1.187 0-1.792-.963-1.792-3.165 0-2.219.64-3.182 1.904-3.182 1.223 0 1.822.963 1.822 3.164 0 2.22-.64 3.183-1.934 3.183ZM93.51 5.395V3.612h-7.505v1.783h2.634v7.758h2.237V5.394h2.634Zm1.317-1.783v9.54h3.406c2.201 0 3.761-1.136 3.761-3.379 0-2.123-1.394-3.242-3.726-3.242h-1.204V3.612h-2.237Zm7.992 0v9.54h2.242v-9.54h-2.242Zm-4.717 7.758h-1.038V8.314h1.091c.962 0 1.525.436 1.525 1.537 0 1.1-.623 1.52-1.578 1.52Z" fill="#232323"/></g><path d="m9 28.5 2.02 6.219h6.54l-5.29 3.843 2.02 6.22L9 40.937 3.71 44.78l2.02-6.219L.44 34.72h6.54L9 28.5ZM31 28.5l2.02 6.219h6.54l-5.29 3.843 2.02 6.22L31 40.937l-5.29 3.843 2.02-6.219-5.29-3.843h6.54L31 28.5ZM53 28.5l2.02 6.219h6.54l-5.29 3.843 2.02 6.22L53 40.937l-5.29 3.843 2.02-6.219-5.29-3.843h6.54L53 28.5ZM75 28.5l2.02 6.219h6.54l-5.29 3.843 2.02 6.22L75 40.937l-5.29 3.843 2.02-6.219-5.29-3.843h6.54L75 28.5Z" fill="#EA9537"/><mask id="b" style="mask-type:alpha" maskUnits="userSpaceOnUse" x="88" y="26" width="9" height="20"><path fill="#D9D9D9" d="M88 26.5h9v19h-9z"/></mask><g mask="url(#b)"><path d="m97 28 2.02 6.219h6.54l-5.291 3.843 2.021 6.22L97 40.437l-5.29 3.843 2.02-6.219-5.29-3.843h6.54L97 28Z" fill="#EA9537"/></g><path opacity=".5" d="m97 28 2.02 6.219h6.54l-5.291 3.843 2.021 6.22L97 40.437l-5.29 3.843 2.02-6.219-5.29-3.843h6.54L97 28Z" fill="#EA9537"/><path d="M121.192 44v-2.232H115.8v-1.12l3.856-8.168h1.32l-3.856 8.168h4.072v-3.36h1.184v3.36h1.256v1.12h-1.256V44h-1.184Zm4.277 0v-1.368h1.368V44h-1.368Zm6.935.232a4.009 4.009 0 0 1-1.576-.304 3.556 3.556 0 0 1-1.24-.864c-.347-.379-.6-.83-.76-1.352l1.12-.336c.192.57.506 1.003.944 1.296.442.293.941.435 1.496.424.512-.01.952-.125 1.32-.344a2.18 2.18 0 0 0 .856-.912c.197-.39.296-.84.296-1.352 0-.784-.23-1.413-.688-1.888-.454-.48-1.054-.72-1.8-.72-.208 0-.427.03-.656.088a2.75 2.75 0 0 0-.64.232l-.592-.936 4.48-4.136.192.48h-5.872V32.48h6.656v1.144l-3.904 3.728-.016-.464c.8-.101 1.504-.01 2.112.272a3.165 3.165 0 0 1 1.424 1.296c.346.576.52 1.253.52 2.032 0 .736-.16 1.387-.48 1.952-.315.56-.75 1-1.304 1.32-.555.315-1.184.472-1.888.472Zm15.814-8.872V44h-1.144v-6.728L142.338 44h-.992v-8.64h1.144v6.672l4.744-6.672h.984Zm5.358 8.88c-.87 0-1.63-.19-2.28-.568a4.132 4.132 0 0 1-1.528-1.592l.944-.6c.314.533.706.939 1.176 1.216.469.277 1.008.416 1.616.416.634 0 1.144-.147 1.528-.44.384-.293.576-.696.576-1.208 0-.352-.083-.632-.248-.84-.16-.208-.406-.357-.736-.448-.326-.09-.734-.136-1.224-.136h-1.024v-1.008h1.008c.597 0 1.077-.107 1.44-.32.368-.219.552-.56.552-1.024 0-.49-.184-.853-.552-1.088-.363-.24-.798-.36-1.304-.36a3.41 3.41 0 0 0-1.456.32 3.588 3.588 0 0 0-1.144.808l-.752-.792a4.307 4.307 0 0 1 1.512-1.08 4.818 4.818 0 0 1 1.928-.376c.554 0 1.056.099 1.504.296.453.192.81.475 1.072.848.266.373.4.821.4 1.344 0 .49-.12.915-.36 1.272-.235.357-.568.653-1 .888l-.064-.44c.373.07.682.219.928.448.245.23.426.504.544.824.117.32.176.645.176.976 0 .55-.144 1.024-.432 1.424a2.79 2.79 0 0 1-1.16.92 4.038 4.038 0 0 1-1.64.32Zm11.6 0a3.752 3.752 0 0 1-1.656-.368 3.839 3.839 0 0 1-1.296-1.016 3.968 3.968 0 0 1-.768-1.488l1.128-.304c.102.416.286.776.552 1.08.267.299.579.53.936.696.363.165.742.248 1.136.248.512 0 .971-.123 1.376-.368.411-.25.736-.581.976-.992.24-.41.36-.861.36-1.352 0-.507-.125-.963-.376-1.368a2.796 2.796 0 0 0-.992-.976c-.41-.24-.858-.36-1.344-.36-.544 0-1.013.12-1.408.36a2.86 2.86 0 0 0-.944.888l-1.072-.448.352-5.992h6.152v1.128h-5.632l.584-.552-.312 5.112-.296-.392a3.495 3.495 0 0 1 1.2-.888 3.54 3.54 0 0 1 1.48-.32c.71 0 1.35.17 1.92.512a3.756 3.756 0 0 1 1.36 1.368c.336.576.504 1.219.504 1.928 0 .704-.178 1.35-.536 1.936a4.11 4.11 0 0 1-1.424 1.4 3.763 3.763 0 0 1-1.96.528Z" fill="#232323"/><defs><clipPath id="a"><path fill="#fff" d="M0 0h106v16H0z"/></clipPath></defs></svg>
